X: 1
T:Nail That Catfish to the Tree (©Steve Rosen)
M:C|
L:1/8
F:
K:G
DE|"G"G2 BG AG BG|cB A2 [B4G4]|"D"ABAG FGAB|AGFD (3EFE D2|
"G"G2 BG AG BG|cB A2 [B3G3] B|"D"ABAG FDEF|"G"(G[BG][B4G4]):|
|:D2|"C"[C4E4] [A4D4]|[c4E4] c2c2|"D"ABAG FGAB|AGFD (3EFE D2|
"C"[C4E4] [A4D4]|[1[c6E6] (A2|"D"A)BAG FDED|"G"(G[BG][B4G4]) :|[2[c6E6] (d2|"D"d)D cD BD A2|"G"(G[BG][B4G4])|]

